images/partner-4.svg

<svg width="123" height="20" viewBox="0 0 123 20" fill="none" xmlns="http://www.w3.org/2000/svg">
<path d="M10.4 14.8H4.8L3.4 18.8H0L6.4 0.699982H9L15.5 18.8H11.8L10.4 14.8ZM5.7 11.9H9.6L8.3 7.89998L7.8 5.09998H7.7L7.1 7.99998L5.7 11.9Z" fill="white"/>
<path d="M28.4 18.8H17V0.799988H20.5V15.6H28.4V18.8Z" fill="white"/>
<path d="M29.8 17.1C29.8 16.5 30 16 30.4 15.7C30.8 15.4 31.3 15.2 31.9 15.2C32.5 15.2 33.1 15.4 33.4 15.7C33.7 16 34 16.5 34 17.1C34 17.7 33.8 18.2 33.4 18.5C33 18.8 32.5 19 31.8 19C31.2 19 30.7 18.8 30.3 18.5C29.9 18.2 29.8 17.7 29.8 17.1Z" fill="white"/>
<path d="M48.7 18C48.2 18.4 47.5 18.7 46.6 18.8C45.7 18.9 44.9 19.1 44 19.1C42.9 19.1 41.9 18.9 40.9 18.6C39.9 18.3 39.1 17.7 38.3 17C37.6 16.3 37 15.3 36.5 14.1C36.1 12.9 35.8 11.5 35.8 9.79999C35.8 7.99999 36 6.59999 36.5 5.39999C37 4.19999 37.6 3.29999 38.4 2.49999C39.2 1.79999 40 1.29999 41 0.899994C42 0.499994 42.9 0.399994 43.9 0.399994C44.9 0.399994 45.8 0.499994 46.5 0.599994C47.2 0.699994 47.8 0.899994 48.3 1.09999L47.6 4.09999C47.2 3.89999 46.7 3.79999 46.2 3.69999C45.7 3.59999 45 3.59999 44.2 3.59999C42.8 3.59999 41.6 4.09999 40.8 5.09999C39.9 6.09999 39.5 7.69999 39.5 9.79999C39.5 10.7 39.6 11.6 39.8 12.3C40 13.1 40.3 13.7 40.7 14.3C41.1 14.9 41.6 15.3 42.3 15.6C42.9 15.9 43.6 16.1 44.5 16.1C45.3 16.1 45.9 16 46.5 15.9C47 15.7 47.5 15.5 47.9 15.3L48.7 18Z" fill="white"/>
<path d="M60.7 0.799988H64V12.4C64 13.6 63.8 14.6 63.5 15.4C63.2 16.2 62.8 16.9 62.2 17.5C61.6 18.1 61 18.4 60.2 18.7C59.4 19 58.5 19.1 57.6 19.1C53 19.1 50.8 17 50.8 12.9V0.899988H54.3V12.2C54.3 12.9 54.4 13.5 54.5 14C54.6 14.5 54.8 14.9 55.1 15.2C55.4 15.5 55.7 15.7 56.1 15.8C56.5 15.9 57 16 57.5 16C58.6 16 59.4 15.7 59.8 15.1C60.3 14.5 60.5 13.5 60.5 12.2V0.799988H60.7Z" fill="white"/>
<path d="M67.4 0.799988H70.9V18.8H67.4V0.799988Z" fill="white"/>
<path d="M82.1 13.9C82.1 13.4 81.9 12.9 81.5 12.6C81.1 12.3 80.6 11.9 80 11.7C79.4 11.4 78.7 11.1 78 10.8C77.3 10.5 76.6 10.1 76 9.69999C75.4 9.29999 74.9 8.69999 74.5 8.09999C74.1 7.49999 73.9 6.59999 73.9 5.59999C73.9 4.69999 74 3.99999 74.3 3.29999C74.6 2.69999 75 2.09999 75.5 1.69999C76 1.29999 76.7 0.999994 77.4 0.699994C78.1 0.499994 79 0.399994 79.9 0.399994C80.9 0.399994 81.9 0.499994 82.9 0.699994C83.8 0.899994 84.6 1.09999 85.2 1.49999L84.1 4.49999C83.7 4.29999 83.2 3.99999 82.4 3.79999C81.6 3.59999 80.8 3.49999 80 3.49999C79.2 3.49999 78.5 3.69999 78.1 3.99999C77.7 4.29999 77.4 4.79999 77.4 5.29999C77.4 5.79999 77.6 6.19999 78 6.59999C78.4 6.89999 78.9 7.29999 79.5 7.49999C80.1 7.79999 80.8 8.09999 81.5 8.39999C82.2 8.69999 82.9 9.09999 83.5 9.49999C84.1 9.89999 84.6 10.5 85 11.1C85.4 11.7 85.6 12.5 85.6 13.5C85.6 14.5 85.4 15.3 85.1 16C84.8 16.7 84.3 17.3 83.8 17.7C83.2 18.2 82.5 18.5 81.7 18.7C80.9 19 80 19.1 79 19.1C77.7 19.1 76.6 19 75.6 18.7C74.6 18.4 73.9 18.2 73.4 18L74.5 15C74.7 15.1 74.9 15.2 75.2 15.3C75.5 15.4 75.8 15.5 76.2 15.6C76.6 15.7 77 15.8 77.4 15.9C77.8 16 78.3 16 78.7 16C79.7 16 80.5 15.8 81.1 15.5C81.8 15.2 82.1 14.6 82.1 13.9Z" fill="white"/>
<path d="M88.3 0.799988H91.8V18.8H88.3V0.799988Z" fill="white"/>
<path d="M99.7 9.39998L98.3 6.59998H98.2L98.6 9.39998V18.8H95.3V0.699982H97.9L104.7 10.3L106 13H106.1L105.7 10.3V0.799982H109V18.9H106.4L99.7 9.39998Z" fill="white"/>
<path d="M112.1 0.799988H122.8V3.89999H115.7V8.09999H122.2V11.2H115.7V15.6H123V18.7H112.2V0.799988H112.1Z" fill="white"/>
</svg>

<svg width="123" height="20" fill="none" xmlns="http://www.w3.org/2000/svg"><path d="M10.4 14.8H4.8l-1.4 4H0L6.4.7H9l6.5 18.1h-3.7l-1.4-4zm-4.7-2.9h3.9l-1.3-4-.5-2.8h-.1L7.1 8l-1.4 3.9zM28.4 18.8H17V.8h3.5v14.8h7.9v3.2zM29.8 17.1c0-.6.2-1.1.6-1.4.4-.3.9-.5 1.5-.5s1.2.2 1.5.5c.3.3.6.8.6 1.4 0 .6-.2 1.1-.6 1.4-.4.3-.9.5-1.6.5-.6 0-1.1-.2-1.5-.5-.4-.3-.5-.8-.5-1.4zM48.7 18c-.5.4-1.2.7-2.1.8-.9.1-1.7.3-2.6.3-1.1 0-2.1-.2-3.1-.5s-1.8-.9-2.6-1.6c-.7-.7-1.3-1.7-1.8-2.9-.4-1.2-.7-2.6-.7-4.3 0-1.8.2-3.2.7-4.4.5-1.2 1.1-2.1 1.9-2.9.8-.7 1.6-1.2 2.6-1.6 1-.4 1.9-.5 2.9-.5s1.9.1 2.6.2c.7.1 1.3.3 1.8.5l-.7 3c-.4-.2-.9-.3-1.4-.4-.5-.1-1.2-.1-2-.1-1.4 0-2.6.5-3.4 1.5-.9 1-1.3 2.6-1.3 4.7 0 .9.1 1.8.3 2.5.2.8.5 1.4.9 2 .4.6.9 1 1.6 1.3.6.3 1.3.5 2.2.5.8 0 1.4-.1 2-.2.5-.2 1-.4 1.4-.6l.8 2.7zM60.7.8H64v11.6c0 1.2-.2 2.2-.5 3-.3.8-.7 1.5-1.3 2.1-.6.6-1.2.9-2 1.2-.8.3-1.7.4-2.6.4-4.6 0-6.8-2.1-6.8-6.2V.9h3.5v11.3c0 .7.1 1.3.2 1.8s.3.9.6 1.2c.3.3.6.5 1 .6.4.1.9.2 1.4.2 1.1 0 1.9-.3 2.3-.9.5-.6.7-1.6.7-2.9V.8h.2zM67.4.8h3.5v18h-3.5V.8zM82.1 13.9c0-.5-.2-1-.6-1.3-.4-.3-.9-.7-1.5-.9-.6-.3-1.3-.6-2-.9-.7-.3-1.4-.7-2-1.1-.6-.4-1.1-1-1.5-1.6-.4-.6-.6-1.5-.6-2.5 0-.9.1-1.6.4-2.3.3-.6.7-1.2 1.2-1.6.5-.4 1.2-.7 1.9-1 .7-.2 1.6-.3 2.5-.3 1 0 2 .1 3 .3.9.2 1.7.4 2.3.8l-1.1 3c-.4-.2-.9-.5-1.7-.7-.8-.2-1.6-.3-2.4-.3-.8 0-1.5.2-1.9.5-.4.3-.7.8-.7 1.3s.2.9.6 1.3c.4.3.9.7 1.5.9.6.3 1.3.6 2 .9.7.3 1.4.7 2 1.1.6.4 1.1 1 1.5 1.6.4.6.6 1.4.6 2.4s-.2 1.8-.5 2.5-.8 1.3-1.3 1.7c-.6.5-1.3.8-2.1 1-.8.3-1.7.4-2.7.4-1.3 0-2.4-.1-3.4-.4-1-.3-1.7-.5-2.2-.7l1.1-3c.2.1.4.2.7.3.3.1.6.2 1 .3l1.2.3c.4.1.9.1 1.3.1 1 0 1.8-.2 2.4-.5.7-.3 1-.9 1-1.6zM88.3.8h3.5v18h-3.5V.8zM99.7 9.4l-1.4-2.8h-.1l.4 2.8v9.4h-3.3V.7h2.6l6.8 9.6L106 13h.1l-.4-2.7V.8h3.3v18.1h-2.6l-6.7-9.5zM112.1.8h10.7v3.1h-7.1v4.2h6.5v3.1h-6.5v4.4h7.3v3.1h-10.8V.8h-.1z" fill="#fff"/></svg>
